packages/foundations/assets/icons/functional/images/audio & video/fast_forward_filled.svg

<svg xmlns="http://www.w3.org/2000/svg" width="32" height="32" fill="none"><path fill="#1A1C1F" fill-rule="evenodd" d="M5.76 8.085c-.588.155-1.095.621-1.342 1.233l-.125.309v12.746l.122.301c.162.402.384.698.692.925.3.222.83.401 1.186.401.622 0 .676-.032 4.8-2.875l3.867-2.666.027 1.984c.027 1.914.032 1.994.151 2.29a2.06 2.06 0 0 0 1.702 1.25c.743.062.599.148 5.577-3.285 2.458-1.695 4.577-3.188 4.709-3.317.76-.745.752-2.032-.017-2.774-.321-.311-8.94-6.252-9.323-6.428-.988-.452-2.236.062-2.649 1.09-.118.293-.123.378-.15 2.291l-.027 1.987-3.733-2.575a547 547 0 0 0-3.923-2.691c-.235-.145-.748-.282-1.035-.277a2.5 2.5 0 0 0-.509.081"/></svg>

<svg width="32" height="32" viewBox="0 0 32 32" fill="none" xmlns="http://www.w3.org/2000/svg"><path d="M5.760 8.085 C 5.172 8.240,4.665 8.706,4.418 9.318 L 4.293 9.627 4.293 16.000 L 4.293 22.373 4.415 22.674 C 4.577 23.076,4.799 23.372,5.107 23.599 C 5.407 23.821,5.937 24.000,6.293 24.000 C 6.915 24.000,6.969 23.968,11.093 21.125 L 14.960 18.459 14.987 20.443 C 15.014 22.357,15.019 22.437,15.138 22.733 C 15.412 23.415,16.101 23.921,16.840 23.983 C 17.583 24.045,17.439 24.131,22.417 20.698 C 24.875 19.003,26.994 17.510,27.126 17.381 C 27.886 16.636,27.878 15.349,27.109 14.607 C 26.788 14.296,18.169 8.355,17.786 8.179 C 16.798 7.727,15.550 8.241,15.137 9.269 C 15.019 9.562,15.014 9.647,14.987 11.560 L 14.960 13.547 11.227 10.972 C 9.173 9.556,7.408 8.345,7.304 8.281 C 7.069 8.136,6.556 7.999,6.269 8.004 C 6.150 8.005,5.921 8.042,5.760 8.085 " fill="#1A1C1F" stroke="none" fill-rule="evenodd"></path></svg>
